X: 4339
T: Boil The Kettle Early
R: reel
M: 4/4
K: Amajor
~c3A BAFA|c2cA BAFA|~c3A ~B2af|ecBd cAAB:|
ce~e2 faaf|ABcA BAFA|ce~e2 fece|fa~a2 bafe|
ce~e2 ~a3f|ABcA BAFA|~c3A ~B2af|ecBd cAAB||

